X:1
T:Title
%%score ( 1 2 ) ( 3 4 )
L:1/8
Q:1/4=90
M:4/4
K:D
V:1 treble nm="Midi_20"
V:2 treble 
V:3 bass nm="Midi_20"
V:4 bass 
V:1
"^Unde et memores (10 10. 10 10. 10 10)""^William Henry Monk\n(1823-89)""^And now, dear Father, mindful of the love""^William Bright\n(1824-1901)" F2 | %1
 F3 D D2 E2 | F3 F F2 G2 | A6 || F2 | E2 F2 G3 G | G2 F2 A2 F2 | E6 || F2 | F3 D D2 E2 | %10
 F3 F F2 G2 | A6 || F2 | B2 A2 ^G3 G | A2 B2 c2 B2 | A6 || A2 | d2 A2 G2 F2 | B2 B2 d2 B2 | A6 || %20
 A2 | G2 F2 E2 D2 | B3 G F2 E2 | D6 |] %24
V:2
 D2 | D3 D D2 D2 | D3 D D2 C2 | D6 || D2 | C2 D2 E3 E | E2 D2 D2 D2 | C6 || D2 | D3 D D2 D2 | %10
 D3 D D2 D2 | D6 || D2 | D2 D2 D3 D | C2 F2 E2 D2 | C6 || C2 | D2 D2 C2 D2 | D2 D2 D2 G2 | F6 || %20
 D2 | C2 D2 C2 D2 | D3 E D2 C2 | D6 |] %24
V:3
 A,2 | A,3 F, F,2 G,2 | A,3 A, A,2 A,2 | A,6 || A,2 | A,2 A,2 B,3 B, | A,2 A,2 A,2 A,2 | A,6 || %8
 A,2 | A,3 F, F,2 G,2 | A,3 D, D,2 E,2 | F,6 || A,2 | G,2 A,2 B,3 B, | A,2 A,2 A,2 ^G,2 | A,6 || %16
"^1. And now, dear Father, mindful of the love\nThat bought us, once for all, on Calvary's Tree,\nAnd having with us Him that pleads above,\nWe here present, we here spread forth for Thee\nThat only offering perfect in Thine eyes,\nThe one true, pure, immortal sacrifice.\n\n2. Look, Father, look on His anointed face,\nAnd only look on us as found in Him;\nLook not on our misusings of Thy grace,\nOur prayer so languid, and our faith so dim:\nFor lo! between our sins and their reward\nWe set the passion of Thy Son, our Lord." A,2 | %17
 A,2 A,2 A,2 A,2 | G,2 G,2 G,2 D2 | D6 || %20
"^3. And then  for those, our dearest and our best,\nBy this prevailing presence we appeal;\nO fold them closer to Thy mercy's breast,\nO do Thine utmost for their souls' true weal;\nFrom tainting mischief keep them white and clear,\nAnd crown Thy gifts with strength to persevere.\n\n4. And so we come: O draw us to Thy feet,\nMost patient Saviour, who canst love us still;\nAnd by this food, so awful and so sweet,\nDeliver us from every touch of ill:\nIn Thine own service make us glad and free,\nAnd grant us nevermore to part with Thee." A,2 | %21
 A,2 A,2 G,2 F,2 | G,3 B, A,2 G,2 | F,6 |] %24
V:4
 D,2 | D,3 D, D,2 D,2 | D,3 D, D,2 E,2 | F,6 || D,2 | G,2 F,2 E,3 D, | C,2 D,2 F,,3 G,, | A,,6 || %8
 D,2 | D,3 D, D,2 D,2 | D,3 B,, B,,2 B,,2 | F,,6 || D,2 | G,2 F,2 E,3 E, | F,2 D,2 E,2 E,2 | %15
 A,,6 || G,2 | F,2 F,2 E,2 D,2 | G,,2 G,,2 B,,2 G,,2 | D,6 || F,2 | E,2 D,2 A,,2 B,,2 | %22
 G,,3 G,, A,,2 A,,2 | D,6 |] %24

